src/assets/logo.svg

<?xml version="1.0" encoding="UTF-8" standalone="no"?>
<svg
   xmlns:dc="http://purl.org/dc/elements/1.1/"
   xmlns:cc="http://creativecommons.org/ns#"
   xmlns:rdf="http://www.w3.org/1999/02/22-rdf-syntax-ns#"
   xmlns:svg="http://www.w3.org/2000/svg"
   xmlns="http://www.w3.org/2000/svg"
   xmlns:sodipodi="http://sodipodi.sourceforge.net/DTD/sodipodi-0.dtd"
   xmlns:inkscape="http://www.inkscape.org/namespaces/inkscape"
   inkscape:version="1.0 (4035a4f, 2020-05-01)"
   sodipodi:docname="logo.svg"
   id="svg860"
   version="1.1"
   fill="none"
   viewBox="0 0 190 40"
   height="40"
   width="190">
  <metadata
     id="metadata864">
    <rdf:RDF>
      <cc:Work
         rdf:about="">
        <dc:format>image/svg+xml</dc:format>
        <dc:type
           rdf:resource="http://purl.org/dc/dcmitype/StillImage" />
        <dc:title></dc:title>
      </cc:Work>
    </rdf:RDF>
  </metadata>
  <sodipodi:namedview
     inkscape:current-layer="svg860"
     inkscape:window-maximized="0"
     inkscape:window-y="23"
     inkscape:window-x="0"
     inkscape:cy="29.004732"
     inkscape:cx="122.51893"
     inkscape:zoom="3.6647399"
     showgrid="false"
     id="namedview862"
     inkscape:window-height="712"
     inkscape:window-width="1246"
     inkscape:pageshadow="2"
     inkscape:pageopacity="0"
     guidetolerance="10"
     gridtolerance="10"
     objecttolerance="10"
     borderopacity="1"
     bordercolor="#666666"
     pagecolor="#ffffff" />
  <path
     id="path847"
     fill="#33cc95"
     d="M 34.1422,5.85781 C 30.3647,2.08031 25.3422,0 20,0 14.6578,0 9.63531,2.08031 5.85781,5.85781 2.08031,9.63531 0,14.6578 0,20 0,25.3422 2.08039,30.3646 5.85781,34.1422 9.63523,37.9198 14.6578,40 20,40 25.3422,40 30.3647,37.9197 34.1422,34.1422 37.9197,30.3647 40,25.3422 40,20 40,14.6578 37.9196,9.63539 34.1422,5.85781 Z" />
  <g
     id="g853"
     clip-path="url(#clip0)">
    <path
       id="path849"
       stroke-linejoin="round"
       stroke-linecap="round"
       stroke-width="2"
       stroke="#ffffff"
       d="M 20.5714,8 V 33.1429" />
    <path
       id="path851"
       stroke-linejoin="round"
       stroke-linecap="round"
       stroke-width="2"
       stroke="#ffffff"
       d="m 26.2857,12.5714 h -8.5714 c -1.0609,0 -2.0783,0.4215 -2.8284,1.1716 -0.7502,0.7501 -1.1716,1.7676 -1.1716,2.8284 0,1.0609 0.4214,2.0783 1.1716,2.8285 0.7501,0.7501 1.7675,1.1715 2.8284,1.1715 h 5.7143 c 1.0608,0 2.0783,0.4215 2.8284,1.1716 0.7502,0.7502 1.1716,1.7676 1.1716,2.8284 0,1.0609 -0.4214,2.0783 -1.1716,2.8285 -0.7501,0.7501 -1.7676,1.1715 -2.8284,1.1715 h -9.7143" />
  </g>
  <defs
     id="defs858">
    <clipPath
       id="clip0">
      <rect
         y="0"
         x="0"
         id="rect855"
         transform="translate(6.85715,6.85714)"
         fill="#ffffff"
         height="27.4286"
         width="27.4286" />
    </clipPath>
  </defs>
  <text
     id="text868"
     y="27.997839"
     x="55.75058"
     style="font-style:normal;font-weight:normal;font-size:16px;line-height:1.25;font-family:sans-serif;fill:#ffffff;fill-opacity:1;stroke:none;"
     xml:space="preserve"><tspan
       style="font-style:normal;font-variant:normal;font-weight:normal;font-stretch:normal;font-size:16px;font-family:Cocogoose;-inkscape-font-specification:Cocogoose;fill:#ffffff;fill-opacity:1;"
       y="27.997839"
       x="55.75058"
       id="tspan866"
       sodipodi:role="line">money control</tspan></text>
</svg>

<svg width="173" height="40" viewBox="0 0 173 40" fill="none" xmlns="http://www.w3.org/2000/svg">
<path d="M56.792 21.304C56.792 19.96 57.056 18.768 57.584 17.728C58.128 16.688 58.864 15.888 59.792 15.328C60.72 14.768 61.752 14.488 62.888 14.488C63.752 14.488 64.576 14.68 65.36 15.064C66.144 15.432 66.768 15.928 67.232 16.552V10.24H70.64V28H67.232V26.032C66.816 26.688 66.232 27.216 65.48 27.616C64.728 28.016 63.856 28.216 62.864 28.216C61.744 28.216 60.72 27.928 59.792 27.352C58.864 26.776 58.128 25.968 57.584 24.928C57.056 23.872 56.792 22.664 56.792 21.304ZM67.256 21.352C67.256 20.536 67.096 19.84 66.776 19.264C66.456 18.672 66.024 18.224 65.48 17.92C64.936 17.6 64.352 17.44 63.728 17.44C63.104 17.44 62.528 17.592 62 17.896C61.472 18.2 61.04 18.648 60.704 19.24C60.384 19.816 60.224 20.504 60.224 21.304C60.224 22.104 60.384 22.808 60.704 23.416C61.04 24.008 61.472 24.464 62 24.784C62.544 25.104 63.12 25.264 63.728 25.264C64.352 25.264 64.936 25.112 65.48 24.808C66.024 24.488 66.456 24.04 66.776 23.464C67.096 22.872 67.256 22.168 67.256 21.352Z" fill="white"/>
<path d="M77.8336 17.464V23.896C77.8336 24.344 77.9376 24.672 78.1456 24.88C78.3696 25.072 78.7376 25.168 79.2496 25.168H80.8096V28H78.6976C75.8656 28 74.4496 26.624 74.4496 23.872V17.464H72.8656V14.704H74.4496V11.416H77.8336V14.704H80.8096V17.464H77.8336Z" fill="white"/>
<path d="M105.457 14.512C107.089 14.512 108.401 15.016 109.393 16.024C110.401 17.016 110.905 18.408 110.905 20.2V28H107.545V20.656C107.545 19.616 107.281 18.824 106.753 18.28C106.225 17.72 105.505 17.44 104.593 17.44C103.681 17.44 102.953 17.72 102.409 18.28C101.881 18.824 101.617 19.616 101.617 20.656V28H98.2571V20.656C98.2571 19.616 97.9931 18.824 97.4651 18.28C96.9371 17.72 96.2171 17.44 95.3051 17.44C94.3771 17.44 93.6411 17.72 93.0971 18.28C92.5691 18.824 92.3051 19.616 92.3051 20.656V28H88.9451V14.704H92.3051V16.312C92.7371 15.752 93.2891 15.312 93.9611 14.992C94.6491 14.672 95.4011 14.512 96.2171 14.512C97.2571 14.512 98.1851 14.736 99.0011 15.184C99.8171 15.616 100.449 16.24 100.897 17.056C101.329 16.288 101.953 15.672 102.769 15.208C103.601 14.744 104.497 14.512 105.457 14.512Z" fill="white"/>
<path d="M119.997 28.216C118.717 28.216 117.565 27.936 116.541 27.376C115.517 26.8 114.709 25.992 114.117 24.952C113.541 23.912 113.253 22.712 113.253 21.352C113.253 19.992 113.549 18.792 114.141 17.752C114.749 16.712 115.573 15.912 116.613 15.352C117.653 14.776 118.813 14.488 120.093 14.488C121.373 14.488 122.533 14.776 123.573 15.352C124.613 15.912 125.429 16.712 126.021 17.752C126.629 18.792 126.933 19.992 126.933 21.352C126.933 22.712 126.621 23.912 125.997 24.952C125.389 25.992 124.557 26.8 123.501 27.376C122.461 27.936 121.293 28.216 119.997 28.216ZM119.997 25.288C120.605 25.288 121.173 25.144 121.701 24.856C122.245 24.552 122.677 24.104 122.997 23.512C123.317 22.92 123.477 22.2 123.477 21.352C123.477 20.088 123.141 19.12 122.469 18.448C121.813 17.76 121.005 17.416 120.045 17.416C119.085 17.416 118.277 17.76 117.621 18.448C116.981 19.12 116.661 20.088 116.661 21.352C116.661 22.616 116.973 23.592 117.597 24.28C118.237 24.952 119.037 25.288 119.997 25.288Z" fill="white"/>
<path d="M136.766 14.512C138.35 14.512 139.63 15.016 140.606 16.024C141.582 17.016 142.07 18.408 142.07 20.2V28H138.71V20.656C138.71 19.6 138.446 18.792 137.918 18.232C137.39 17.656 136.67 17.368 135.758 17.368C134.83 17.368 134.094 17.656 133.55 18.232C133.022 18.792 132.758 19.6 132.758 20.656V28H129.398V14.704H132.758V16.36C133.206 15.784 133.774 15.336 134.462 15.016C135.166 14.68 135.934 14.512 136.766 14.512Z" fill="white"/>
<path d="M157.625 21.064C157.625 21.544 157.593 21.976 157.529 22.36H147.809C147.889 23.32 148.225 24.072 148.817 24.616C149.409 25.16 150.137 25.432 151.001 25.432C152.249 25.432 153.137 24.896 153.665 23.824H157.289C156.905 25.104 156.169 26.16 155.081 26.992C153.993 27.808 152.657 28.216 151.073 28.216C149.793 28.216 148.641 27.936 147.617 27.376C146.609 26.8 145.817 25.992 145.241 24.952C144.681 23.912 144.401 22.712 144.401 21.352C144.401 19.976 144.681 18.768 145.241 17.728C145.801 16.688 146.585 15.888 147.593 15.328C148.601 14.768 149.761 14.488 151.073 14.488C152.337 14.488 153.465 14.76 154.457 15.304C155.465 15.848 156.241 16.624 156.785 17.632C157.345 18.624 157.625 19.768 157.625 21.064ZM154.145 20.104C154.129 19.24 153.817 18.552 153.209 18.04C152.601 17.512 151.857 17.248 150.977 17.248C150.145 17.248 149.441 17.504 148.865 18.016C148.305 18.512 147.961 19.208 147.833 20.104H154.145Z" fill="white"/>
<path d="M172.798 14.704L164.566 34.288H160.99L163.87 27.664L158.542 14.704H162.31L165.742 23.992L169.222 14.704H172.798Z" fill="white"/>
<path d="M34.1422 5.85781C30.3647 2.08031 25.3422 0 20 0C14.6578 0 9.63531 2.08031 5.85781 5.85781C2.08031 9.63531 0 14.6578 0 20C0 25.3422 2.08039 30.3646 5.85781 34.1422C9.63523 37.9198 14.6578 40 20 40C25.3422 40 30.3647 37.9197 34.1422 34.1422C37.9197 30.3647 40 25.3422 40 20C40 14.6578 37.9196 9.63539 34.1422 5.85781Z" fill="#33CC95"/>
<g clip-path="url(#clip0)">
<path d="M20.5714 8V33.1429" stroke="white" stroke-width="2" stroke-linecap="round" stroke-linejoin="round"/>
<path d="M26.2857 12.5714H17.7143C16.6534 12.5714 15.636 12.9929 14.8859 13.743C14.1357 14.4931 13.7143 15.5106 13.7143 16.5714C13.7143 17.6323 14.1357 18.6497 14.8859 19.3999C15.636 20.15 16.6534 20.5714 17.7143 20.5714H23.4286C24.4894 20.5714 25.5069 20.9929 26.257 21.743C27.0072 22.4932 27.4286 23.5106 27.4286 24.5714C27.4286 25.6323 27.0072 26.6497 26.257 27.3999C25.5069 28.15 24.4894 28.5714 23.4286 28.5714H13.7143" stroke="white" stroke-width="2" stroke-linecap="round" stroke-linejoin="round"/>
</g>
<defs>
<clipPath id="clip0">
<rect width="27.4286" height="27.4286" fill="white" transform="translate(6.85715 6.85714)"/>
</clipPath>
</defs>
</svg>
